X: 3356
T: Belter Skelter
R: reel
M: 4/4
K: Dminor
Acef d2Ac|dcAG FDEF|Acdf e2Ac|eAce agfe|
Acef d2Ac|dcAG FDEF|DEFG E2DE|FGEC D4:|
|:fd (3ddd efga|f3d gafd|ec (3ccc defg|e3c fgec|
fc (3ccc agfe|fd (3ddd efec|Acdf e2Ac|efcA d4:|

